public/icons/clim.svg

<svg width="24" height="24" viewBox="0 0 24 24" fill="none" xmlns="http://www.w3.org/2000/svg">
<g clip-path="url(#clip0_381_2)">
<path fill-rule="evenodd" clip-rule="evenodd" d="M10 16C10.2652 16 10.5196 16.1054 10.7071 16.2929C10.8946 16.4804 11 16.7348 11 17V18.172C10.9996 18.9672 10.6834 19.7298 10.121 20.292L9.707 20.707C9.5184 20.8892 9.2658 20.99 9.0036 20.9877C8.7414 20.9854 8.49059 20.8802 8.30518 20.6948C8.11977 20.5094 8.0146 20.2586 8.01233 19.9964C8.01005 19.7342 8.11084 19.4816 8.293 19.293L8.707 18.879C8.89455 18.6915 8.99994 18.4372 9 18.172V17C9 16.7348 9.10536 16.4804 9.29289 16.2929C9.48043 16.1054 9.73478 16 10 16ZM14 16C14.2449 16 14.4813 16.09 14.6644 16.2527C14.8474 16.4155 14.9643 16.6397 14.993 16.883L15 17V18.172C15 18.3918 15.0724 18.6055 15.206 18.78L15.293 18.879L15.707 19.293C15.8863 19.473 15.9905 19.7144 15.9982 19.9684C16.006 20.2223 15.9168 20.4697 15.7488 20.6603C15.5807 20.8508 15.3464 20.9703 15.0935 20.9944C14.8406 21.0185 14.588 20.9454 14.387 20.79L14.293 20.707L13.879 20.293C13.3649 19.7788 13.055 19.0955 13.007 18.37L13 18.172V17C13 16.7348 13.1054 16.4804 13.2929 16.2929C13.4804 16.1054 13.7348 16 14 16ZM6 16C6.24493 16 6.48134 16.09 6.66437 16.2527C6.84741 16.4155 6.96434 16.6397 6.993 16.883L7 17V17.613C6.99985 18.0054 6.88429 18.389 6.66772 18.7162C6.45114 19.0433 6.14312 19.2996 5.782 19.453L5.632 19.51L4.316 19.949C4.0742 20.0287 3.81112 20.0131 3.58039 19.9055C3.34966 19.7979 3.16866 19.6064 3.07428 19.3699C2.97991 19.1335 2.97927 18.8699 3.07249 18.633C3.16572 18.3961 3.34579 18.2037 3.576 18.095L3.684 18.051L5 17.613V17C5 16.7348 5.10536 16.4804 5.29289 16.2929C5.48043 16.1054 5.73478 16 6 16ZM18 16C18.2449 16 18.4813 16.09 18.6644 16.2527C18.8474 16.4155 18.9643 16.6397 18.993 16.883L19 17V17.613L20.316 18.051C20.5587 18.1312 20.7614 18.3013 20.8826 18.5263C21.0038 18.7513 21.0343 19.0141 20.9677 19.2609C20.9012 19.5077 20.7427 19.7196 20.5247 19.8531C20.3068 19.9867 20.0461 20.0317 19.796 19.979L19.684 19.949L18.368 19.509C17.9957 19.3851 17.6681 19.1545 17.4259 18.8458C17.1838 18.5371 17.0377 18.1641 17.006 17.773L17 17.613V17C17 16.7348 17.1054 16.4804 17.2929 16.2929C17.4804 16.1054 17.7348 16 18 16ZM18 3C18.7652 2.99996 19.5015 3.29233 20.0583 3.81728C20.615 4.34224 20.9501 5.06011 20.995 5.824L21 6V12C21 12.7652 20.7077 13.5015 20.1827 14.0583C19.6578 14.615 18.9399 14.9501 18.176 14.995L18 15H6C5.23479 15 4.49849 14.7077 3.94174 14.1827C3.38499 13.6578 3.04989 12.9399 3.005 12.176L3 12V6C2.99996 5.23479 3.29233 4.49849 3.81728 3.94174C4.34224 3.38499 5.06011 3.04989 5.824 3.005L6 3H18ZM18 11H6C5.73478 11 5.48043 11.1054 5.29289 11.2929C5.10536 11.4804 5 11.7348 5 12V13H19V12C19 11.7348 18.8946 11.4804 18.7071 11.2929C18.5196 11.1054 18.2652 11 18 11ZM17 6C16.7348 6 16.4804 6.10536 16.2929 6.29289C16.1054 6.48043 16 6.73478 16 7C16 7.26522 16.1054 7.51957 16.2929 7.70711C16.4804 7.89464 16.7348 8 17 8C17.2652 8 17.5196 7.89464 17.7071 7.70711C17.8946 7.51957 18 7.26522 18 7C18 6.73478 17.8946 6.48043 17.7071 6.29289C17.5196 6.10536 17.2652 6 17 6Z" fill="white"/>
</g>
<defs>
<clipPath id="clip0_381_2">
<rect width="24" height="24" fill="white"/>
</clipPath>
</defs>
</svg>

<svg xmlns="http://www.w3.org/2000/svg" width="24" height="24" fill="none"><g clip-path="url(#a)"><path fill="#fff" fill-rule="evenodd" d="M10 16a1 1 0 0 1 1 1v1.172a3 3 0 0 1-.879 2.12l-.414.415a1 1 0 0 1-1.414-1.414l.414-.414A1 1 0 0 0 9 18.172V17a1 1 0 0 1 1-1m4 0a1 1 0 0 1 .993.883L15 17v1.172a1 1 0 0 0 .206.608l.087.099.414.414a1 1 0 0 1-1.32 1.497l-.094-.083-.414-.414a3 3 0 0 1-.872-1.923L13 18.172V17a1 1 0 0 1 1-1m-8 0a1 1 0 0 1 .993.883L7 17v.613a2 2 0 0 1-1.218 1.84l-.15.057-1.316.439a1 1 0 0 1-.74-1.854l.108-.044L5 17.613V17a1 1 0 0 1 1-1m12 0a1 1 0 0 1 .993.883L19 17v.613l1.316.438a1 1 0 0 1-.52 1.928l-.112-.03-1.316-.44a2 2 0 0 1-1.362-1.736l-.006-.16V17a1 1 0 0 1 1-1m0-13a3 3 0 0 1 2.995 2.824L21 6v6a3 3 0 0 1-2.824 2.995L18 15H6a3 3 0 0 1-2.995-2.824L3 12V6a3 3 0 0 1 2.824-2.995L6 3zm0 8H6a1 1 0 0 0-1 1v1h14v-1a1 1 0 0 0-1-1m-1-5a1 1 0 1 0 0 2 1 1 0 0 0 0-2" clip-rule="evenodd"/></g><defs><clipPath id="a"><path fill="#fff" d="M0 0h24v24H0z"/></clipPath></defs></svg>
